X: 7
T: Mouth Of The Tobique, The
C: Francis Sowish
Z: JACKB
S: https://thesession.org/tunes/423#setting49608
R: reel
M: 4/4
L: 1/8
K: Gmaj
|:(3DEF|G3A BdBG|BdBG DGBG|ABAG FDEF|GABc d2(3DEF|
G3A BdBG|BdBG DGBG|ABAG FDEF|GBAF G2:|
ef|g3f gbag|fdAd f2 gf|ecAG FDEF|GABc d2 ef|
g3f gbag|fdAd f2 gf|ecAG FDEF|GBAF G2 (3def|
b3c' bagb|a3b agfa|gfed edBA|GABc d2 ef|
g3f gbag|fdAd f2 gf|ecAG FDEF|GBAF G2||
|:(3DEF|G2 BG Gc G2|BG Gc G2 BG|FGAB cDEF|GABc d2(3DEF|
G2 BG Gc G2|BG Gc G2 BG|FGAB cDEF|GBAF G2:|

